frontend/src/assets/fiche/ComponentCoeur.svg

<svg id="euhqTkoFtCm1" xmlns="http://www.w3.org/2000/svg" xmlns:xlink="http://www.w3.org/1999/xlink" viewBox="0 0 72 70" shape-rendering="geometricPrecision" text-rendering="geometricPrecision"><path d="M70.5,35c0,18.462-15.4061,33.5-34.5,33.5s-34.5-15.038-34.5-33.5s15.4061-33.5,34.5-33.5s34.5,15.038,34.5,33.5Z" fill="none" stroke="#000" stroke-width="3"/><path d="M36.93,50.2149c-.51.18-1.35.18-1.86,0-4.35-1.485-14.07-7.68-14.07-18.18c0-4.635,3.735-8.385,8.34-8.385c2.73,0,5.145,1.32,6.66,3.36.7707-1.0412,1.7745-1.8874,2.931-2.4709s2.4336-.888,3.729-.8891c4.605,0,8.34,3.75,8.34,8.385c0,10.5-9.72,16.695-14.07,18.18Z" fill="#e66d38" stroke="#000" stroke-width="1.5" stroke-linecap="round" stroke-linejoin="round"/></svg>

<svg width="72" height="70" viewBox="0 0 72 70" fill="none" xmlns="http://www.w3.org/2000/svg">
<path d="M70.5 35C70.5 53.462 55.0939 68.5 36 68.5C16.9061 68.5 1.5 53.462 1.5 35C1.5 16.538 16.9061 1.5 36 1.5C55.0939 1.5 70.5 16.538 70.5 35Z" stroke="black" stroke-width="3"/>
<path d="M36.93 50.2149C36.42 50.3949 35.58 50.3949 35.07 50.2149C30.72 48.7299 21 42.5349 21 32.0349C21 27.3999 24.735 23.6499 29.34 23.6499C32.07 23.6499 34.485 24.9699 36 27.0099C36.7707 25.9687 37.7745 25.1225 38.931 24.539C40.0875 23.9555 41.3646 23.651 42.66 23.6499C47.265 23.6499 51 27.3999 51 32.0349C51 42.5349 41.28 48.7299 36.93 50.2149Z" stroke="black" stroke-width="1.5" stroke-linecap="round" stroke-linejoin="round"/>
</svg>
